src/img/icon-document.svg

<svg width="24" height="24" viewBox="0 0 24 24" fill="none" xmlns="http://www.w3.org/2000/svg">
<path fill-rule="evenodd" clip-rule="evenodd" d="M19.74 8.33018L14.3 2.33018C14.1109 2.1207 13.8422 2.00085 13.56 2.00018H6.56V2.00018C5.16282 1.98352 4.01667 3.10264 4 4.49982C4 4.49994 4 4.50006 4 4.50018V19.5002L4 19.5002C4.01647 20.8974 5.16246 22.0167 6.55964 22.0002C6.55976 22.0002 6.55988 22.0002 6.56 22.0002H17.44C18.8372 22.0168 19.9833 20.8977 20 19.5005C20 19.5004 20 19.5003 20 19.5002V9.00018V9.00018C19.9994 8.75235 19.9067 8.51358 19.74 8.33018L19.74 8.33018ZM17.6487 9.00024H13.7087C13.2798 8.95801 12.9639 8.57981 12.9987 8.15024V4.00024H13.1087L17.6487 9.00024ZM17.44 20.0002H6.56C6.26779 20.0172 6.01711 19.7941 6.0001 19.5019C6.00007 19.5013 6.00004 19.5007 6 19.5002V4.50018C6.01608 4.20791 6.26604 3.98401 6.55831 4.00009C6.55887 4.00012 6.55944 4.00015 6.56 4.00018H11V8.15018V8.15019C10.9664 9.68359 12.1769 10.9566 13.71 11.0002H18V19.5002C17.9839 19.7925 17.734 20.0164 17.4417 20.0003C17.4411 20.0003 17.4406 20.0002 17.44 20.0002V20.0002Z" fill="#000000"/>
</svg>

<svg xmlns="http://www.w3.org/2000/svg"width="24" height="24" viewBox="0 0 24 24" fill="#000">
  <path d="m19.74 8.33-5.44-6a1 1 0 0 0-.74-.33h-7A2.53 2.53 0 0 0 4 4.5v15A2.53 2.53 0 0 0 6.56 22h10.88A2.53 2.53 0 0 0 20 19.5V9a1 1 0 0 0-.26-.67zM17.65 9h-3.94a.79.79 0 0 1-.712-.85V4h.11l4.54 5zm-.21 11H6.56a.53.53 0 0 1-.56-.498V4.5a.53.53 0 0 1 .558-.5H11v4.15A2.79 2.79 0 0 0 13.71 11H18v8.5a.53.53 0 0 1-.558.5h-.002z"/>
</svg>
